proprietary/assets/icons/symbolen-en-abstract/datalek.svg

<svg enable-background="new 0 0 64 64" viewBox="0 0 64 64" xmlns="http://www.w3.org/2000/svg"><path d="m0 0h64v64h-64z" fill="none"/><path d="m47.6 19.3c-.1-2.4-.4-4.8-.8-7.2-.3-2.1-1.9-3.6-4-4-6-1-15.9-1-17.9-1s-11.9 0-17.9 1c-2.1.3-3.6 1.9-4 4-1 6-1 15.9-1 17.9s0 11.9 1 17.9c.3 2.1 1.9 3.6 4 4 6 1 15.9 1 17.9 1 1.2 0 5.5 0 10-.2v-11.6c0-1.5.8-2.8 2-3.5v-5.1c.1-6.5 4.7-11.9 10.7-13.2zm-19.6 26.7h-6.6l.6-14v-8h6zm-3-26c-2.2 0-3.5-1.3-3.5-3.5 0-1.9 1.2-3.5 3.5-3.5 2.2 0 3.5 1.2 3.5 3.5 0 1.9-1.2 3.5-3.5 3.5z"/><path d="m61.9 40h-16.9v-7.5c0-3 2.5-5.5 5.5-5.5s5.5 2.5 5.5 5.5v1.5h5v-1.5c0-5.8-4.7-10.5-10.5-10.5s-10.5 4.7-10.5 10.5v7.5h-.9c-.6 0-1.1.5-1.1 1.1v13.8c0 .6.4 1 .9 1.1 1.8.3 6.1 1 11.6 1s9.7-.6 11.6-1c.5-.1.9-.6.9-1.1v-13.8c0-.6-.5-1.1-1.1-1.1zm-9.9 8.6v3.4h-3v-3.4c-.7-.5-1.1-1.2-1.1-2.1 0-1.4 1.2-2.6 2.6-2.6s2.6 1.2 2.6 2.6c0 .9-.4 1.6-1.1 2.1z"/></svg>

<?xml version="1.0" encoding="utf-8"?>
<!-- Generator: Adobe Illustrator 24.0.1, SVG Export Plug-In . SVG Version: 6.00 Build 0)  -->
<svg version="1.1" xmlns="http://www.w3.org/2000/svg" xmlns:xlink="http://www.w3.org/1999/xlink" x="0px" y="0px"
	 viewBox="0 0 64 64" style="enable-background:new 0 0 64 64;" xml:space="preserve">
<style type="text/css">
	.st0{fill:none;}
	.st1{fill:#FF1D25;}
	.st2{fill:#1D1D1B;}
</style>
<g id="Box">
	<rect class="st0" width="64" height="64"/>
</g>
<g id="Icon">
	<g>
		<path d="M47.6,19.3c-0.1-2.4-0.4-4.8-0.8-7.2c-0.3-2.1-1.9-3.6-4-4c-6-1-15.9-1-17.9-1s-11.9,0-17.9,1c-2.1,0.3-3.6,1.9-4,4
			c-1,6-1,15.9-1,17.9c0,2,0,11.9,1,17.9c0.3,2.1,1.9,3.6,4,4c6,1,15.9,1,17.9,1c1.2,0,5.5,0,10-0.2V41.1c0-1.5,0.8-2.8,2-3.5v-5.1
			C37,26,41.6,20.6,47.6,19.3z M28,46h-6.6L22,32v-8h6V46z M25,20c-2.2,0-3.5-1.3-3.5-3.5c0-1.9,1.2-3.5,3.5-3.5
			c2.2,0,3.5,1.2,3.5,3.5C28.5,18.4,27.3,20,25,20z"/>
		<path d="M61.9,40L45,40v-7.5c0-3,2.5-5.5,5.5-5.5s5.5,2.5,5.5,5.5V34h5v-1.5C61,26.7,56.3,22,50.5,22S40,26.7,40,32.5V40h-0.9
			c-0.6,0-1.1,0.5-1.1,1.1v13.8c0,0.6,0.4,1,0.9,1.1c1.8,0.3,6.1,1,11.6,1s9.7-0.6,11.6-1c0.5-0.1,0.9-0.6,0.9-1.1V41.1
			C63,40.5,62.5,40,61.9,40z M52,48.6V52h-3v-3.4c-0.7-0.5-1.1-1.2-1.1-2.1c0-1.4,1.2-2.6,2.6-2.6s2.6,1.2,2.6,2.6
			C53.1,47.4,52.7,48.1,52,48.6z"/>
	</g>
</g>
</svg>
